X:39
T:Lady Anne Gordon's Reel
C:R. Petrie
S:Petrie's Second Collection of Strathspey Reels and Country Dances &c.
Z:Steve Wyrick , 6/11/04
N:Petrie's Second Collection, page 14
L:1/8
M:C|
R:Reel
K:D
B|ADFD     E(B,B,)B|AD F/G/A d2df|gfed e(BBd)|FD F/G/A d2d::f|
  dg f/g/a b(eef)  |dgfa     fdec|dBAF EFGA  |FD F/G/A d2d:|
